assets/No littering/Flat/no_littering_flat.svg

<svg width="32" height="32" viewBox="0 0 32 32" fill="none" xmlns="http://www.w3.org/2000/svg">
<path d="M27.875 15.9375C27.875 22.5304 22.5304 27.875 15.9375 27.875C9.3446 27.875 4 22.5304 4 15.9375C4 9.3446 9.3446 4 15.9375 4C22.5304 4 27.875 9.3446 27.875 15.9375Z" fill="white"/>
<path d="M17.9179 10.1094C18.7248 10.1094 19.3789 9.45529 19.3789 8.64844C19.3789 7.84158 18.7248 7.1875 17.9179 7.1875C17.1111 7.1875 16.457 7.84158 16.457 8.64844C16.457 9.45529 17.1111 10.1094 17.9179 10.1094Z" fill="black"/>
<path d="M16.2969 10.9062C16.08 10.9062 15.8709 10.9868 15.71 11.1322L13.5584 13.0775L10.8167 14.0504C10.3613 14.212 10.1231 14.7122 10.2847 15.1676C10.4463 15.623 10.9465 15.8612 11.402 15.6996L14.3082 14.6684C14.4169 14.6298 14.5169 14.5701 14.6024 14.4928L16 13.2293V17.7576C15.9794 17.8796 15.9687 18.005 15.9687 18.1328V24.125C15.9687 24.6082 16.3605 25 16.8437 25C17.327 25 17.7187 24.6082 17.7187 24.125V18.7188H18.7031V24.125C18.7031 24.6082 19.0949 25 19.5781 25C20.0614 25 20.4531 24.6082 20.4531 24.125V18.1328C20.4531 18.0428 20.4478 17.954 20.4375 17.8667V14.7289L21.4778 16.8808C21.6882 17.3159 22.2114 17.4981 22.6464 17.2878C23.0815 17.0774 23.2637 16.5542 23.0534 16.1192L20.7721 11.4004C20.626 11.0982 20.32 10.9062 19.9844 10.9062H16.2969Z" fill="black"/>
<path d="M9.99998 16.5C9.99998 16.7761 9.77612 17 9.49998 17C9.22384 17 8.99998 16.7761 8.99998 16.5C8.99998 16.2239 9.22384 16 9.49998 16C9.77612 16 9.99998 16.2239 9.99998 16.5Z" fill="black"/>
<path d="M11.5 22C11.7761 22 12 21.7761 12 21.5C12 21.2239 11.7761 21 11.5 21C11.2238 21 11 21.2239 11 21.5C11 21.7761 11.2238 22 11.5 22Z" fill="black"/>
<path d="M11 18.125C11 18.056 11.0559 18 11.125 18H11.875C11.944 18 12 18.056 12 18.125V18.875C12 18.944 11.944 19 11.875 19H11.125C11.0559 19 11 18.944 11 18.875V18.125Z" fill="black"/>
<path d="M8.88122 19.4429C8.8324 19.4917 8.8324 19.5708 8.88122 19.6196L9.41155 20.15C9.46036 20.1988 9.53951 20.1988 9.58832 20.15L10.1187 19.6196C10.1675 19.5708 10.1675 19.4917 10.1187 19.4429L9.58832 18.9125C9.53951 18.8637 9.46036 18.8637 9.41155 18.9125L8.88122 19.4429Z" fill="black"/>
<path d="M16 30C23.732 30 30 23.732 30 16C30 8.26801 23.732 2 16 2C8.26801 2 2 8.26801 2 16C2 23.732 8.26801 30 16 30ZM22.6453 24.7666C20.7991 26.1682 18.4967 27 16 27C9.92487 27 5 22.0751 5 16C5 13.5033 5.8318 11.2009 7.23339 9.35471L22.6453 24.7666ZM24.7666 22.6453L9.35471 7.23339C11.2009 5.8318 13.5033 5 16 5C22.0751 5 27 9.92487 27 16C27 18.4967 26.1682 20.7991 24.7666 22.6453Z" fill="#F8312F"/>
</svg>

<svg xmlns="http://www.w3.org/2000/svg" width="32" height="32" fill="none"><path fill="#fff" d="M27.875 15.938c0 6.592-5.345 11.937-11.938 11.937C9.346 27.875 4 22.53 4 15.937 4 9.346 9.345 4 15.938 4c6.592 0 11.937 5.345 11.937 11.938Z"/><path fill="#000" d="M17.918 10.11a1.461 1.461 0 1 0 0-2.923 1.461 1.461 0 0 0 0 2.922ZM16.297 10.906a.875.875 0 0 0-.587.226l-2.152 1.946-2.741.972a.875.875 0 1 0 .585 1.65l2.906-1.032a.876.876 0 0 0 .294-.175L16 13.229v4.529c-.02.122-.031.247-.031.375v5.992a.875.875 0 0 0 1.75 0v-5.406h.984v5.406a.875.875 0 0 0 1.75 0v-5.992c0-.09-.005-.179-.015-.266v-3.138l1.04 2.152a.875.875 0 0 0 1.575-.762l-2.28-4.719a.875.875 0 0 0-.789-.494h-3.687ZM10 16.5a.5.5 0 1 1-1 0 .5.5 0 0 1 1 0ZM11.5 22a.5.5 0 1 0 0-1 .5.5 0 0 0 0 1Z"/><path fill="#000" d="M11 18.125c0-.069.056-.125.125-.125h.75c.069 0 .125.056.125.125v.75a.125.125 0 0 1-.125.125h-.75a.125.125 0 0 1-.125-.125v-.75ZM8.881 19.443a.125.125 0 0 0 0 .177l.53.53a.125.125 0 0 0 .177 0l.53-.53a.125.125 0 0 0 0-.177l-.53-.53a.125.125 0 0 0-.176 0l-.53.53Z"/><path fill="#F8312F" d="M16 30c7.732 0 14-6.268 14-14S23.732 2 16 2 2 8.268 2 16s6.268 14 14 14Zm6.645-5.233A10.952 10.952 0 0 1 16 27C9.925 27 5 22.075 5 16c0-2.497.832-4.8 2.233-6.645l15.412 15.412Zm2.122-2.122L9.355 7.233A10.952 10.952 0 0 1 16 5c6.075 0 11 4.925 11 11 0 2.497-.832 4.8-2.233 6.645Z"/></svg>
